X: 2661
T: Bank Of Ireland, The
R: reel
M: 4/4
K: Dmixolydian
ed|cA~A2 cAAG|EGDG EGD2|cA~A2 cABG|Add^c dfed|
c2AB cAAG|EGDG EGD2|cA~A2 cABG|Add^c d2de||
[K:D]
~f2fd ~e2ec|dfed cAag|~f2fd efge|agec d2cd|
eaag efge|dfed cAG2|Addc defg|afge d2||

